assets/svg/icon_login_restorecloud.svg

<svg width="36" height="36" viewBox="0 0 36 36" fill="none" xmlns="http://www.w3.org/2000/svg">
<path d="M9.75002 25L9.75001 24.8825C9.74986 23.7464 9.74972 22.7047 9.87992 21.8573C10.0233 20.9242 10.3606 18.8879 11.2877 18.0767C12.2148 17.2655 13.342 16.9704 14.4084 16.8449C15.3768 16.731 16.5673 16.7311 17.8658 16.7312H18.1343C19.4327 16.7311 20.6232 16.731 21.5916 16.8449C22.6581 16.9704 23.7853 17.2655 24.7123 18.0767C25.6394 18.8879 25.9767 20.9242 26.1201 21.8573C26.2484 22.6922 26.2502 23.7157 26.25 24.8323C30.1089 24.1102 33 21.1411 33 17.5882C33 14.344 30.5894 11.5866 27.2326 10.5822C26.7557 6.87924 23.1238 4 18.7143 4C13.9804 4 10.1429 7.31836 10.1429 11.4118C10.1429 12.3171 10.3306 13.1846 10.6742 13.9866C10.2712 13.9182 9.85475 13.8823 9.42857 13.8823C5.87817 13.8823 3 16.3711 3 19.4412C3 22.5112 5.87817 25 9.42857 25L9.75002 25Z" fill="white"/>
<path fill-rule="evenodd" clip-rule="evenodd" d="M18 19C15.1716 19 13.7574 19 12.8787 19.8787C12 20.7574 12 22.1716 12 25C12 27.8284 12 29.2426 12.8787 30.1213C13.7574 31 15.1716 31 18 31C20.8284 31 22.2426 31 23.1213 30.1213C24 29.2426 24 27.8284 24 25C24 22.1716 24 20.7574 23.1213 19.8787C22.2426 19 20.8284 19 18 19ZM20.7071 23.6262L18.7071 21.6262C18.3166 21.2357 17.6834 21.2357 17.2929 21.6262L15.2929 23.6262C14.9024 24.0167 14.9024 24.6499 15.2929 25.0404C15.6834 25.431 16.3166 25.431 16.7071 25.0404L17 24.7475V27.6667C17 28.219 17.4477 28.6667 18 28.6667C18.5523 28.6667 19 28.219 19 27.6667V24.7475L19.2929 25.0404C19.6834 25.431 20.3166 25.431 20.7071 25.0404C21.0976 24.6499 21.0976 24.0167 20.7071 23.6262Z" fill="white"/>
</svg>

<svg xmlns="http://www.w3.org/2000/svg" width="36" height="36" fill="none"><path fill="#fff" d="M9.75 25v-.117c0-1.137 0-2.178.13-3.026.143-.933.48-2.97 1.408-3.78.927-.812 2.054-1.107 3.12-1.232.969-.114 2.16-.114 3.458-.114h.268c1.299 0 2.49 0 3.458.114 1.066.125 2.193.42 3.12 1.232.927.81 1.265 2.847 1.408 3.78.128.835.13 1.859.13 2.975 3.859-.722 6.75-3.69 6.75-7.244 0-3.244-2.41-6.001-5.767-7.006C26.756 6.88 23.123 4 18.714 4c-4.734 0-8.571 3.318-8.571 7.412 0 .905.188 1.773.531 2.575a7.4 7.4 0 0 0-1.245-.105c-3.55 0-6.429 2.49-6.429 5.56S5.878 25 9.429 25z"/><path fill="#fff" fill-rule="evenodd" d="M18 19c-2.828 0-4.243 0-5.121.879C12 20.757 12 22.172 12 25s0 4.243.879 5.121C13.757 31 15.172 31 18 31s4.243 0 5.121-.879C24 29.243 24 27.828 24 25s0-4.243-.879-5.121C22.243 19 20.828 19 18 19m2.707 4.626-2-2a1 1 0 0 0-1.414 0l-2 2a1 1 0 0 0 1.414 1.414l.293-.293v2.92a1 1 0 1 0 2 0v-2.92l.293.293a1 1 0 1 0 1.414-1.414" clip-rule="evenodd"/></svg>
